www/assets/icons/video_settings.svg

<svg width="24" height="24" viewBox="0 0 24 24" xmlns="http://www.w3.org/2000/svg" fill='currentColor'><path d="M2.55811 4.50488H20.5581V9.50488H22.5581V4.50488C22.5581 3.40488 21.6581 2.50488 20.5581 2.50488H2.55811C1.45811 2.50488 0.558105 3.40488 0.558105 4.50488V16.5049C0.558105 17.6049 1.45811 18.5049 2.55811 18.5049H11.5581V16.5049H2.55811V4.50488Z"/><path d="M14.5581 10.5049L8.55811 6.50488V14.5049L14.5581 10.5049Z"/><path d="M22.2681 16.9349C22.2981 16.6449 22.3081 16.3549 22.2781 16.0749L23.3481 15.2249C23.4481 15.1449 23.4681 15.0149 23.4081 14.9049L22.3781 13.1149C22.3181 13.0049 22.1881 12.9649 22.0681 13.0049L20.7881 13.5049C20.5581 13.3349 20.3081 13.1949 20.0381 13.0849L19.8381 11.7249C19.8181 11.5949 19.7181 11.5049 19.5881 11.5049H17.5181C17.3981 11.5049 17.2881 11.5949 17.2681 11.7149L17.0681 13.0749C16.8081 13.1849 16.5581 13.3349 16.3281 13.4949L15.0481 12.9949C14.9281 12.9449 14.7981 12.9949 14.7381 13.1049L13.7081 14.8949C13.6481 15.0049 13.6681 15.1349 13.7681 15.2149L14.8381 16.0749C14.8081 16.3649 14.7981 16.6549 14.8281 16.9349L13.7581 17.7849C13.6581 17.8649 13.6381 17.9949 13.6981 18.1049L14.7281 19.8949C14.7881 20.0049 14.9181 20.0449 15.0381 20.0049L16.3081 19.5049C16.5381 19.6749 16.7881 19.8149 17.0581 19.9249L17.2581 21.2849C17.2781 21.4049 17.3781 21.4949 17.5081 21.4949H19.5781C19.6981 21.4949 19.8081 21.4049 19.8281 21.2849L20.0281 19.9249C20.2881 19.8149 20.5381 19.6649 20.7681 19.5049L22.0481 20.0049C22.1681 20.0549 22.2981 20.0049 22.3581 19.8949L23.3881 18.1049C23.4481 17.9949 23.4281 17.8649 23.3281 17.7849L22.2681 16.9349ZM18.5581 18.0049C17.7281 18.0049 17.0581 17.3349 17.0581 16.5049C17.0581 15.6749 17.7281 15.0049 18.5581 15.0049C19.3881 15.0049 20.0581 15.6749 20.0581 16.5049C20.0581 17.3349 19.3881 18.0049 18.5581 18.0049Z"/></svg>

<svg xmlns="http://www.w3.org/2000/svg" width="24" height="24" viewBox="0 0 24 24" fill='currentColor'><path d="M2.558 4.505h18v5h2v-5c0-1.1-.9-2-2-2h-18c-1.1 0-2 .9-2 2v12c0 1.1.9 2 2 2h9v-2h-9z"/><path d="m14.558 10.505-6-4v8zm7.71 6.43c.03-.29.04-.58.01-.86l1.07-.85c.1-.08.12-.21.06-.32l-1.03-1.79c-.06-.11-.19-.15-.31-.11l-1.28.5a3.4 3.4 0 0 0-.75-.42l-.2-1.36a.25.25 0 0 0-.25-.22h-2.07c-.12 0-.23.09-.25.21l-.2 1.36c-.26.11-.51.26-.74.42l-1.28-.5c-.12-.05-.25 0-.31.11l-1.03 1.79c-.06.11-.04.24.06.32l1.07.86c-.03.29-.04.58-.01.86l-1.07.85c-.1.08-.12.21-.06.32l1.03 1.79c.06.11.19.15.31.11l1.27-.5q.345.255.75.42l.2 1.36c.02.12.12.21.25.21h2.07c.12 0 .23-.09.25-.21l.2-1.36c.26-.11.51-.26.74-.42l1.28.5c.12.05.25 0 .31-.11l1.03-1.79c.06-.11.04-.24-.06-.32zm-3.71 1.07c-.83 0-1.5-.67-1.5-1.5s.67-1.5 1.5-1.5 1.5.67 1.5 1.5-.67 1.5-1.5 1.5"/></svg>
